X: 41
M: C
L: 1/8
K: G
ef |\
gfgd (BGB)d | e2d2 d2ef | gfgd BGBd | c2A2 A2ef |
gfgd BGBd | efge edcB | cdec ABcA | B2G2 G2 |]




